; generated by Slic3r 0.9.9-dev on 2014-05-20 at 13:41:53

; layer_height = 0.2
; perimeters = 2
; top_solid_layers = 2
; bottom_solid_layers = 2
; fill_density = 0.25
; perimeter_speed = 22.4
; infill_speed = 28
; travel_speed = 80
; nozzle_diameter = 0.40
; filament_diameter = 1.75
; extrusion_multiplier = 1
; perimeters extrusion width = 0.16mm
; infill extrusion width = 0.20mm
; solid infill extrusion width = 0.20mm
; top infill extrusion width = 0.22mm
; first layer extrusion width = 0.20mm

G21 ; set units to millimeters
G28 ; home all 
G90 ;
G92 E0 ; reset extruder
G92 X0 ; reset x
G92 Y0 ; reset Y
G92 Z0 ; reset Z
G90 ; use absolute coordinates
G92 E0
M82 ; use absolute distances for extrusion
T0
G92 E0
G1 F1800.000 E-1.00000
G92 E0
G1 Z0.200 F4800.000
G1 X91.040 Y81.560
G1 F1800.000 E1.00000
G1 X91.380 Y81.210 F940.800 E1.00986
G1 X91.750 Y80.880 E1.01987
G1 X92.360 Y80.470 E1.03472
G1 X93.030 Y80.140 E1.04980
G1 X93.260 Y80.050 E1.05479
G1 X93.730 Y79.910 E1.06470
G1 X106.470 Y77.360 E1.32713
G1 X106.880 Y77.290 E1.33554
G1 X107.290 Y77.260 E1.34384
G1 X112.710 Y77.260 E1.45332
G1 X113.320 Y77.320 E1.46570
G1 X126.270 Y79.910 E1.73245
G1 X126.740 Y80.050 E1.74236
G1 X126.970 Y80.140 E1.74735
G1 X127.640 Y80.470 E1.76244
G1 X128.250 Y80.880 E1.77728
G1 X128.620 Y81.210 E1.78730
G1 X129.120 Y81.750 E1.80216
G1 X129.530 Y82.360 E1.81701
G1 X129.860 Y83.030 E1.83209
G1 X129.950 Y83.260 E1.83708
G1 X130.090 Y83.730 E1.84699
G1 X132.640 Y96.470 E2.10942
G1 X132.710 Y96.880 E2.11783
G1 X132.740 Y97.290 E2.12613
G1 X132.740 Y102.710 E2.23561
G1 X132.680 Y103.320 E2.24799
G1 X130.090 Y116.270 E2.51474
G1 X129.950 Y116.740 E2.52465
G1 X129.860 Y116.970 E2.52964
G1 X129.530 Y117.640 E2.54472
G1 X129.120 Y118.250 E2.55957
G1 X128.790 Y118.620 E2.56959
G1 X128.250 Y119.120 E2.58445
G1 X127.640 Y119.530 E2.59930
G1 X126.970 Y119.860 E2.61438
G1 X126.740 Y119.950 E2.61937
G1 X126.270 Y120.090 E2.62928
G1 X113.530 Y122.640 E2.89171
G1 X113.120 Y122.710 E2.90012
G1 X112.710 Y122.740 E2.90842
G1 X107.290 Y122.740 E3.01790
G1 X106.680 Y122.680 E3.03028
G1 X93.730 Y120.090 E3.29703
G1 X93.260 Y119.950 E3.30694
G1 X93.030 Y119.860 E3.31193
G1 X92.360 Y119.530 E3.32701
G1 X91.750 Y119.120 E3.34186
G1 X91.380 Y118.790 E3.35187
G1 X90.880 Y118.250 E3.36674
G1 X90.470 Y117.640 E3.38159
G1 X90.140 Y116.970 E3.39667
G1 X90.050 Y116.740 E3.40166
G1 X89.910 Y116.270 E3.41157
G1 X87.360 Y103.530 E3.67400
G1 X87.290 Y103.120 E3.68241
G1 X87.260 Y102.710 E3.69071
G1 X87.260 Y97.290 E3.80019
G1 X87.320 Y96.680 E3.81257
G1 X89.910 Y83.730 E4.07932
G1 X90.050 Y83.260 E4.08923
G1 X90.350 Y82.580 E4.10424
G1 X90.600 Y82.150 E4.11429
G1 X90.880 Y81.750 E4.12415
G1 X91.017 Y81.588 E4.12843
G1 F1800.000 E3.12843
G92 E0
G1 X112.864 Y109.931 F4800.000
G1 F1800.000 E1.00000
G1 X113.203 Y109.859 F940.800 E1.00700
G1 X115.183 Y108.978 E1.05077
G1 X116.936 Y107.704 E1.09455
G1 X118.387 Y106.093 E1.13832
G1 X119.470 Y104.216 E1.18210
G1 X119.909 Y102.864 E1.21081
G1 X124.636 Y102.864 E1.30628
G1 X124.636 Y114.636 E1.54404
G1 X112.864 Y114.636 E1.78181
G1 X112.864 Y109.968 E1.87610
G1 X112.621 Y109.734 F4800.000
G1 X113.128 Y109.627 F752.640 E1.88656
G1 X115.061 Y108.766 E1.92930
G1 X116.773 Y107.522 E1.97204
G1 X118.189 Y105.950 E2.01479
G1 X119.247 Y104.117 E2.05753
G1 X119.733 Y102.621 E2.08929
G1 X124.879 Y102.621 E2.19323
G1 X124.879 Y114.879 E2.44081
G1 X112.621 Y114.879 E2.68839
G1 X112.621 Y109.771 E2.79156
G1 X112.847 Y109.825 F4800.000
G1 F1800.000 E1.79156
G92 E0
G1 X107.136 Y109.931 F4800.000
G1 F1800.000 E1.00000
G1 X107.136 Y114.636 F940.800 E1.09503
G1 X95.364 Y114.636 E1.33279
G1 X95.364 Y102.864 E1.57056
G1 X100.091 Y102.864 E1.66602
G1 X100.530 Y104.216 E1.69474
G1 X101.613 Y106.093 E1.73851
G1 X103.064 Y107.704 E1.78229
G1 X104.817 Y108.978 E1.82606
G1 X106.797 Y109.859 E1.86983
G1 X107.100 Y109.923 E1.87610
G1 X107.379 Y109.734 F4800.000
G1 X107.379 Y114.879 F752.640 E1.98001
G1 X95.121 Y114.879 E2.22759
G1 X95.121 Y102.621 E2.47516
G1 X100.267 Y102.621 E2.57910
G1 X100.753 Y104.117 E2.61086
G1 X101.811 Y105.950 E2.65361
G1 X103.227 Y107.522 E2.69635
G1 X104.939 Y108.766 E2.73909
G1 X106.872 Y109.627 E2.78184
G1 X107.343 Y109.727 E2.79156
G1 X107.243 Y109.936 F4800.000
G1 X100.091 Y97.136
G1 X95.364 Y97.136 F940.800 E2.88702
G1 X95.364 Y85.364 E3.12479
G1 X107.136 Y85.364 E3.36255
G1 X107.136 Y90.069 E3.45758
G1 X106.797 Y90.141 E3.46458
G1 X104.817 Y91.022 E3.50835
G1 X103.064 Y92.296 E3.55213
G1 X101.613 Y93.907 E3.59590
G1 X100.530 Y95.784 E3.63968
G1 X100.102 Y97.101 E3.66766
G1 X100.267 Y97.379 F4800.000
G1 X95.121 Y97.379 F752.640 E3.77159
G1 X95.121 Y85.121 E4.01917
G1 X107.379 Y85.121 E4.26675
G1 X107.379 Y90.266 E4.37066
G1 X106.872 Y90.373 E4.38112
G1 X104.939 Y91.234 E4.42386
G1 X103.227 Y92.478 E4.46660
G1 X101.811 Y94.050 E4.50934
G1 X100.753 Y95.883 E4.55209
G1 X100.278 Y97.344 E4.58311
G1 X100.071 Y97.236 F4800.000
G1 X112.864 Y90.069
G1 X112.864 Y85.364 F940.800 E4.67814
G1 X124.636 Y85.364 E4.91591
G1 X124.636 Y97.136 E5.15367
G1 X119.909 Y97.136 E5.24914
G1 X119.470 Y95.784 E5.27785
G1 X118.387 Y93.907 E5.32163
G1 X116.936 Y92.296 E5.36540
G1 X115.183 Y91.022 E5.40917
G1 X113.203 Y90.141 E5.45295
G1 X112.900 Y90.076 E5.45921
G1 X112.621 Y90.266 F4800.000
G1 X112.621 Y85.121 F752.640 E5.56312
G1 X124.879 Y85.121 E5.81070
G1 X124.879 Y97.379 E6.05828
G1 X119.733 Y97.379 E6.16221
G1 X119.247 Y95.883 E6.19398
G1 X118.189 Y94.050 E6.23672
G1 X116.773 Y92.478 E6.27946
G1 X115.061 Y91.234 E6.32221
G1 X113.128 Y90.373 E6.36495
G1 X112.657 Y90.273 E6.37467
G1 X112.757 Y90.064 F4800.000
G1 X99.963 Y103.040
G1 X100.128 Y103.551 F1176.000 E6.38554
G1 X99.618 Y103.040 E6.40015
G1 X99.274 Y103.040 E6.40712
G1 X100.294 Y104.061 E6.43635
G1 X100.629 Y104.740 E6.45167
G1 X98.929 Y103.040 E6.50033
G1 X98.585 Y103.040 E6.50730
G1 X101.099 Y105.555 E6.57930
G1 X102.128 Y106.928 F4800.000
G1 X98.241 Y103.040 F1176.000 E6.69061
G1 X97.896 Y103.040 E6.69758
G1 X106.960 Y112.104 E6.95711
G1 X106.960 Y112.448 E6.96408
G1 X97.552 Y103.040 E7.23347
G1 X97.208 Y103.040 E7.24044
G1 X106.960 Y112.792 E7.51969
G1 X106.960 Y113.137 E7.52666
G1 X96.863 Y103.040 E7.81577
G1 X96.519 Y103.040 E7.82274
G1 X106.960 Y113.481 E8.12172
G1 X106.960 Y113.826 E8.12869
G1 X96.174 Y103.040 E8.43752
G1 X95.830 Y103.040 E8.44449
G1 X106.960 Y114.170 E8.76319
G1 X106.905 Y114.460 E8.76915
G1 X95.540 Y103.095 E9.09458
G1 X95.540 Y103.439 E9.10155
G1 X106.561 Y114.460 E9.41711
G1 X106.216 Y114.460 E9.42408
G1 X95.540 Y103.784 E9.72978
G1 X95.540 Y104.128 E9.73675
G1 X105.872 Y114.460 E10.03259
G1 X105.527 Y114.460 E10.03956
G1 X95.540 Y104.473 E10.32554
G1 X95.540 Y104.817 E10.33251
G1 X105.183 Y114.460 E10.60863
G1 X104.839 Y114.460 E10.61560
G1 X95.540 Y105.161 E10.88185
G1 X95.540 Y105.506 E10.88883
G1 X104.494 Y114.460 E11.14522
G1 X104.150 Y114.460 E11.15219
G1 X95.540 Y105.850 E11.39873
G1 X95.540 Y106.194 E11.40570
G1 X103.806 Y114.460 E11.64237
G1 X103.461 Y114.460 E11.64934
G1 X95.540 Y106.539 E11.87615
G1 X95.540 Y106.883 E11.88312
G1 X103.117 Y114.460 E12.10007
G1 X102.772 Y114.460 E12.10705
G1 X95.540 Y107.228 E12.31413
G1 X95.540 Y107.572 E12.32111
G1 X102.428 Y114.460 E12.51833
G1 X102.084 Y114.460 E12.52531
G1 X95.540 Y107.916 E12.71267
G1 X95.540 Y108.261 E12.71965
G1 X101.739 Y114.460 E12.89715
G1 X101.395 Y114.460 E12.90412
G1 X95.540 Y108.605 E13.07177
G1 X95.540 Y108.949 E13.07874
G1 X101.051 Y114.460 E13.23652
G1 X100.706 Y114.460 E13.24350
G1 X95.540 Y109.294 E13.39142
G1 X95.540 Y109.638 E13.39839
G1 X100.362 Y114.460 E13.53645
G1 X100.017 Y114.460 E13.54342
G1 X95.540 Y109.983 E13.67162
G1 X95.540 Y110.327 E13.67860
G1 X99.673 Y114.460 E13.79693
G1 X99.329 Y114.460 E13.80391
G1 X95.540 Y110.671 E13.91238
G1 X95.540 Y111.016 E13.91936
G1 X98.984 Y114.460 E14.01797
G1 X98.640 Y114.460 E14.02495
G1 X95.540 Y111.360 E14.11370
G1 X95.540 Y111.704 E14.12067
G1 X98.296 Y114.460 E14.19957
G1 X97.951 Y114.460 E14.20654
G1 X95.540 Y112.049 E14.27557
G1 X95.540 Y112.393 E14.28255
G1 X97.607 Y114.460 E14.34172
G1 X97.262 Y114.460 E14.34869
G1 X95.540 Y112.738 E14.39800
G1 X95.540 Y113.082 E14.40498
G1 X96.918 Y114.460 E14.44443
G1 X96.574 Y114.460 E14.45140
G1 X95.540 Y113.426 E14.48099
G1 X95.540 Y113.771 E14.48796
G1 X96.229 Y114.460 E14.50769
G1 X95.885 Y114.460 E14.51466
G1 X95.540 Y114.115 E14.52453
G1 X95.541 Y114.460 E14.53150
G1 X103.276 Y108.075 F4800.000
G1 X106.960 Y111.759 F1176.000 E14.63699
G1 X106.960 Y111.415 E14.64397
G1 X104.535 Y108.990 E14.71340
G1 X105.254 Y109.365 E14.72981
G1 X106.960 Y111.071 E14.77865
G1 X106.960 Y110.726 E14.78562
G1 X105.875 Y109.641 E14.81670
G1 X106.495 Y109.917 E14.83045
G1 X106.960 Y110.382 E14.84375
G1 X95.541 Y96.960 F4800.000
G1 X95.540 Y96.613 F1176.000 E14.85080
G1 X95.887 Y96.960 E14.86076
G1 X96.233 Y96.960 E14.86780
G1 X95.540 Y96.267 E14.88772
G1 X95.540 Y95.921 E14.89476
G1 X96.579 Y96.960 E14.92463
G1 X96.925 Y96.960 E14.93167
G1 X95.540 Y95.575 E14.97150
G1 X95.540 Y95.229 E14.97854
G1 X97.271 Y96.960 E15.02833
G1 X97.617 Y96.960 E15.03537
G1 X95.540 Y94.883 E15.09511
G1 X95.540 Y94.537 E15.10215
G1 X97.963 Y96.960 E15.17185
G1 X98.309 Y96.960 E15.17889
G1 X95.540 Y94.191 E15.25855
G1 X95.540 Y93.845 E15.26559
G1 X98.655 Y96.960 E15.35520
G1 X99.001 Y96.960 E15.36224
G1 X95.540 Y93.499 E15.46181
G1 X95.540 Y93.153 E15.46885
G1 X99.347 Y96.960 E15.57837
G1 X99.693 Y96.960 E15.58541
G1 X95.540 Y92.807 E15.70490
G1 X95.540 Y92.461 E15.71194
G1 X99.981 Y96.902 E15.83972
G1 X100.066 Y96.641 E15.84530
G1 X95.540 Y92.115 E15.97552
G1 X95.540 Y91.769 E15.98256
G1 X100.151 Y96.380 E16.11523
G1 X100.236 Y96.118 E16.12081
G1 X95.540 Y91.423 E16.25592
G1 X95.540 Y91.077 E16.26296
G1 X100.321 Y95.857 E16.40050
G1 X100.424 Y95.615 E16.40587
G1 X95.540 Y90.731 E16.54639
G1 X95.540 Y90.385 E16.55343
G1 X100.551 Y95.395 E16.69759
G1 X100.677 Y95.176 E16.70275
G1 X95.540 Y90.039 E16.85056
G1 X95.540 Y89.693 E16.85760
G1 X100.804 Y94.956 E17.00905
G1 X100.931 Y94.737 E17.01420
G1 X95.540 Y89.347 E17.16930
G1 X95.540 Y89.001 E17.17634
G1 X101.057 Y94.518 E17.33508
G1 X101.184 Y94.298 E17.34023
G1 X95.540 Y88.655 E17.50262
G1 X95.540 Y88.309 E17.50966
G1 X101.311 Y94.079 E17.67569
G1 X101.437 Y93.860 E17.68084
G1 X95.540 Y87.963 E17.85052
G1 X95.540 Y87.617 E17.85756
G1 X101.592 Y93.668 E18.03167
G1 X101.756 Y93.486 E18.03665
G1 X95.540 Y87.271 E18.21548
G1 X95.540 Y86.924 E18.22252
G1 X101.920 Y93.304 E18.40607
G1 X102.084 Y93.122 E18.41106
G1 X95.540 Y86.578 E18.59932
G1 X95.540 Y86.232 E18.60636
G1 X102.247 Y92.940 E18.79934
G1 X102.411 Y92.757 E18.80433
G1 X95.540 Y85.886 E19.00203
G1 X95.540 Y85.540 E19.00907
G1 X102.575 Y92.575 E19.21148
G1 X102.739 Y92.393 E19.21646
G1 X95.886 Y85.540 E19.41364
G1 X96.232 Y85.540 E19.42068
G1 X102.903 Y92.211 E19.61262
G1 X103.094 Y92.056 E19.61762
G1 X96.578 Y85.540 E19.80510
G1 X96.925 Y85.540 E19.81214
G1 X103.295 Y91.911 E19.99543
G1 X103.495 Y91.765 E20.00047
G1 X97.271 Y85.540 E20.17958
G1 X97.617 Y85.540 E20.18662
G1 X103.696 Y91.619 E20.36153
G1 X103.896 Y91.474 E20.36657
G1 X97.963 Y85.540 E20.53729
G1 X98.309 Y85.540 E20.54433
G1 X104.096 Y91.328 E20.71086
G1 X104.297 Y91.183 E20.71590
G1 X98.655 Y85.540 E20.87824
G1 X99.001 Y85.540 E20.88528
G1 X104.497 Y91.037 E21.04344
G1 X104.698 Y90.891 E21.04848
G1 X99.347 Y85.540 E21.20244
G1 X99.693 Y85.540 E21.20948
G1 X104.931 Y90.779 E21.36020
G1 X105.171 Y90.672 E21.36554
G1 X100.039 Y85.540 E21.51319
G1 X100.385 Y85.540 E21.52023
G1 X105.410 Y90.566 E21.66482
G1 X105.650 Y90.459 E21.67016
G1 X100.731 Y85.540 E21.81168
G1 X101.077 Y85.540 E21.81872
G1 X105.889 Y90.352 E21.95718
G1 X106.128 Y90.246 E21.96251
G1 X101.423 Y85.540 E22.09790
G1 X101.769 Y85.540 E22.10494
G1 X106.368 Y90.139 E22.23726
G1 X106.607 Y90.033 E22.24259
G1 X102.115 Y85.540 E22.37184
G1 X102.461 Y85.540 E22.37888
G1 X106.867 Y89.946 E22.50565
G1 X106.960 Y89.693 E22.51114
G1 X102.807 Y85.540 E22.63062
G1 X103.153 Y85.540 E22.63766
G1 X106.960 Y89.347 E22.74718
G1 X106.960 Y89.001 E22.75422
G1 X103.499 Y85.540 E22.85379
G1 X103.845 Y85.540 E22.86083
G1 X106.960 Y88.655 E22.95044
G1 X106.960 Y88.309 E22.95748
G1 X104.191 Y85.540 E23.03714
G1 X104.537 Y85.540 E23.04418
G1 X106.960 Y87.963 E23.11387
G1 X106.960 Y87.617 E23.12091
G1 X104.883 Y85.540 E23.18066
G1 X105.229 Y85.540 E23.18770
G1 X106.960 Y87.271 E23.23748
G1 X106.960 Y86.925 E23.24452
G1 X105.575 Y85.540 E23.28435
G1 X105.921 Y85.540 E23.29139
G1 X106.960 Y86.579 E23.32127
G1 X106.960 Y86.233 E23.32831
G1 X106.267 Y85.540 E23.34822
G1 X106.613 Y85.540 E23.35526
G1 X106.960 Y85.887 E23.36523
G1 X106.959 Y85.540 E23.37227
G1 X113.040 Y87.896 F4800.000
G1 X122.104 Y96.960 F1176.000 E23.63180
G1 X122.448 Y96.960 E23.63877
G1 X113.040 Y87.552 E23.90816
G1 X113.040 Y87.208 E23.91513
G1 X122.792 Y96.960 E24.19438
G1 X123.137 Y96.960 E24.20135
G1 X113.040 Y86.863 E24.49046
G1 X113.040 Y86.519 E24.49744
G1 X123.481 Y96.960 E24.79641
G1 X123.826 Y96.960 E24.80338
G1 X113.040 Y86.174 E25.11221
G1 X113.040 Y85.830 E25.11919
G1 X124.170 Y96.960 E25.43788
G1 X124.460 Y96.905 E25.44385
G1 X113.095 Y85.540 E25.76927
G1 X113.439 Y85.540 E25.77624
G1 X124.460 Y96.561 E26.09180
G1 X124.460 Y96.216 E26.09877
G1 X113.784 Y85.540 E26.40447
G1 X114.128 Y85.540 E26.41144
G1 X124.460 Y95.872 E26.70728
G1 X124.460 Y95.527 E26.71425
G1 X114.473 Y85.540 E27.00023
G1 X114.817 Y85.540 E27.00720
G1 X124.460 Y95.183 E27.28332
G1 X124.460 Y94.839 E27.29029
G1 X115.161 Y85.540 E27.55654
G1 X115.506 Y85.540 E27.56352
G1 X124.460 Y94.494 E27.81991
G1 X124.460 Y94.150 E27.82688
G1 X115.850 Y85.540 E28.07341
G1 X116.194 Y85.540 E28.08039
G1 X124.460 Y93.806 E28.31706
G1 X124.460 Y93.461 E28.32403
G1 X116.539 Y85.540 E28.55084
G1 X116.883 Y85.540 E28.55781
G1 X124.460 Y93.117 E28.77476
G1 X124.460 Y92.772 E28.78173
G1 X117.228 Y85.540 E28.98882
G1 X117.572 Y85.540 E28.99580
G1 X124.460 Y92.428 E29.19302
G1 X124.460 Y92.084 E29.19999
G1 X117.916 Y85.540 E29.38736
G1 X118.261 Y85.540 E29.39433
G1 X124.460 Y91.739 E29.57184
G1 X124.460 Y91.395 E29.57881
G1 X118.605 Y85.540 E29.74645
G1 X118.949 Y85.540 E29.75343
G1 X124.460 Y91.051 E29.91121
G1 X124.460 Y90.706 E29.91818
G1 X119.294 Y85.540 E30.06610
G1 X119.638 Y85.540 E30.07307
G1 X124.460 Y90.362 E30.21113
G1 X124.460 Y90.017 E30.21811
G1 X119.983 Y85.540 E30.34631
G1 X120.327 Y85.540 E30.35328
G1 X124.460 Y89.673 E30.47162
G1 X124.460 Y89.329 E30.47859
G1 X120.671 Y85.540 E30.58707
G1 X121.016 Y85.540 E30.59404
G1 X124.460 Y88.984 E30.69266
G1 X124.460 Y88.640 E30.69963
G1 X121.360 Y85.540 E30.78838
G1 X121.704 Y85.540 E30.79536
G1 X124.460 Y88.296 E30.87425
G1 X124.460 Y87.951 E30.88122
G1 X122.049 Y85.540 E30.95025
G1 X122.393 Y85.540 E30.95723
G1 X124.460 Y87.607 E31.01640
G1 X124.460 Y87.262 E31.02337
G1 X122.738 Y85.540 E31.07268
G1 X123.082 Y85.540 E31.07965
G1 X124.460 Y86.918 E31.11910
G1 X124.460 Y86.574 E31.12608
G1 X123.426 Y85.540 E31.15567
G1 X123.771 Y85.540 E31.16264
G1 X124.460 Y86.229 E31.18237
G1 X124.460 Y85.885 E31.18934
G1 X124.115 Y85.540 E31.19920
G1 X124.460 Y85.541 E31.20618
G1 X117.872 Y93.072 F4800.000
G1 X121.759 Y96.960 F1176.000 E31.31750
G1 X121.415 Y96.960 E31.32447
G1 X118.901 Y94.445 E31.39646
G1 X119.371 Y95.260 E31.41551
G1 X121.071 Y96.960 E31.46418
G1 X120.726 Y96.960 E31.47115
G1 X119.706 Y95.939 E31.50037
G1 X119.871 Y96.449 E31.51123
G1 X120.382 Y96.960 E31.52585
G1 X120.037 Y96.960 E31.53282
G1 X116.724 Y91.925 F4800.000
G1 X113.040 Y88.241 F1176.000 E31.63831
G1 X113.040 Y88.585 E31.64528
