; gcode modified for material mixing by 'Gcode Filament Mixer' from Gyrobot
; generated by Slic3r 0.9.9-dev on 2014-05-20 at 13:41:53

; layer_height = 0.2
; perimeters = 2
; top_solid_layers = 2
; bottom_solid_layers = 2
; fill_density = 0.25
; perimeter_speed = 22.4
; infill_speed = 28
; travel_speed = 80
; nozzle_diameter = 0.40
; filament_diameter = 1.75
; extrusion_multiplier = 1
; perimeters extrusion width = 0.16mm
; infill extrusion width = 0.20mm
; solid infill extrusion width = 0.20mm
; top infill extrusion width = 0.22mm
; first layer extrusion width = 0.20mm

G21 ; set units to millimeters
G28 ; home all 
G90 ;
G92 E0 U0
G92 X0 ; reset x
G92 Y0 ; reset Y
G92 Z0 ; reset Z
G90 ; use absolute coordinates
G92 E0 U0
M82 ; use absolute distances for extrusion
; T0 A = 100% B = 0%
G92 E0 U0
G1 F1800.000 E-1 U-0
G92 E0 U0
G1 Z0.200 F4800.000
G1 X91.040 Y81.560
G1 F1800.000 E1 U0
G1 X91.380 Y81.210 F940.800 E1.00986 U0
G1 X91.750 Y80.880 E1.01987 U0
G1 X92.360 Y80.470 E1.03472 U0
G1 X93.030 Y80.140 E1.0498 U0
G1 X93.260 Y80.050 E1.05479 U0
G1 X93.730 Y79.910 E1.0647 U0
G1 X106.470 Y77.360 E1.32713 U0
G1 X106.880 Y77.290 E1.33554 U0
G1 X107.290 Y77.260 E1.34384 U0
G1 X112.710 Y77.260 E1.45332 U0
G1 X113.320 Y77.320 E1.4657 U0
G1 X126.270 Y79.910 E1.73245 U0
G1 X126.740 Y80.050 E1.74236 U0
G1 X126.970 Y80.140 E1.74735 U0
G1 X127.640 Y80.470 E1.76244 U0
G1 X128.250 Y80.880 E1.77728 U0
G1 X128.620 Y81.210 E1.7873 U0
G1 X129.120 Y81.750 E1.80216 U0
G1 X129.530 Y82.360 E1.81701 U0
G1 X129.860 Y83.030 E1.83209 U0
G1 X129.950 Y83.260 E1.83708 U0
G1 X130.090 Y83.730 E1.84699 U0
G1 X132.640 Y96.470 E2.10942 U0
G1 X132.710 Y96.880 E2.11783 U0
G1 X132.740 Y97.290 E2.12613 U0
G1 X132.740 Y102.710 E2.23561 U0
G1 X132.680 Y103.320 E2.24799 U0
G1 X130.090 Y116.270 E2.51474 U0
G1 X129.950 Y116.740 E2.52465 U0
G1 X129.860 Y116.970 E2.52964 U0
G1 X129.530 Y117.640 E2.54472 U0
G1 X129.120 Y118.250 E2.55957 U0
G1 X128.790 Y118.620 E2.56959 U0
G1 X128.250 Y119.120 E2.58445 U0
G1 X127.640 Y119.530 E2.5993 U0
G1 X126.970 Y119.860 E2.61438 U0
G1 X126.740 Y119.950 E2.61937 U0
G1 X126.270 Y120.090 E2.62928 U0
G1 X113.530 Y122.640 E2.89171 U0
G1 X113.120 Y122.710 E2.90012 U0
G1 X112.710 Y122.740 E2.90842 U0
G1 X107.290 Y122.740 E3.0179 U0
G1 X106.680 Y122.680 E3.03028 U0
G1 X93.730 Y120.090 E3.29703 U0
G1 X93.260 Y119.950 E3.30694 U0
G1 X93.030 Y119.860 E3.31193 U0
G1 X92.360 Y119.530 E3.32701 U0
G1 X91.750 Y119.120 E3.34186 U0
G1 X91.380 Y118.790 E3.35187 U0
G1 X90.880 Y118.250 E3.36674 U0
G1 X90.470 Y117.640 E3.38159 U0
G1 X90.140 Y116.970 E3.39667 U0
G1 X90.050 Y116.740 E3.40166 U0
G1 X89.910 Y116.270 E3.41157 U0
G1 X87.360 Y103.530 E3.674 U0
G1 X87.290 Y103.120 E3.68241 U0
G1 X87.260 Y102.710 E3.69071 U0
G1 X87.260 Y97.290 E3.80019 U0
G1 X87.320 Y96.680 E3.81257 U0
G1 X89.910 Y83.730 E4.07932 U0
G1 X90.050 Y83.260 E4.08923 U0
G1 X90.350 Y82.580 E4.10424 U0
G1 X90.600 Y82.150 E4.11429 U0
G1 X90.880 Y81.750 E4.12415 U0
G1 X91.017 Y81.588 E4.12843 U0
G1 F1800.000 E3.12843 U0
G92 E0 U0
G1 X112.864 Y109.931 F4800.000
G1 F1800.000 E1 U0
G1 X113.203 Y109.859 F940.800 E1.007 U0
G1 X115.183 Y108.978 E1.05077 U0
G1 X116.936 Y107.704 E1.09455 U0
G1 X118.387 Y106.093 E1.13832 U0
G1 X119.470 Y104.216 E1.1821 U0
G1 X119.909 Y102.864 E1.21081 U0
G1 X124.636 Y102.864 E1.30628 U0
G1 X124.636 Y114.636 E1.54404 U0
G1 X112.864 Y114.636 E1.78181 U0
G1 X112.864 Y109.968 E1.8761 U0
G1 X112.621 Y109.734 F4800.000
G1 X113.128 Y109.627 F752.640 E1.88656 U0
G1 X115.061 Y108.766 E1.9293 U0
G1 X116.773 Y107.522 E1.97204 U0
G1 X118.189 Y105.950 E2.01479 U0
G1 X119.247 Y104.117 E2.05753 U0
G1 X119.733 Y102.621 E2.08929 U0
G1 X124.879 Y102.621 E2.19323 U0
G1 X124.879 Y114.879 E2.44081 U0
G1 X112.621 Y114.879 E2.68839 U0
G1 X112.621 Y109.771 E2.79156 U0
G1 X112.847 Y109.825 F4800.000
G1 F1800.000 E1.79156 U0
G92 E0 U0
G1 X107.136 Y109.931 F4800.000
G1 F1800.000 E1 U0
G1 X107.136 Y114.636 F940.800 E1.09503 U0
G1 X95.364 Y114.636 E1.33279 U0
G1 X95.364 Y102.864 E1.57056 U0
G1 X100.091 Y102.864 E1.66602 U0
G1 X100.530 Y104.216 E1.69474 U0
G1 X101.613 Y106.093 E1.73851 U0
G1 X103.064 Y107.704 E1.78229 U0
G1 X104.817 Y108.978 E1.82606 U0
G1 X106.797 Y109.859 E1.86983 U0
G1 X107.100 Y109.923 E1.8761 U0
G1 X107.379 Y109.734 F4800.000
G1 X107.379 Y114.879 F752.640 E1.98001 U0
G1 X95.121 Y114.879 E2.22759 U0
G1 X95.121 Y102.621 E2.47516 U0
G1 X100.267 Y102.621 E2.5791 U0
G1 X100.753 Y104.117 E2.61086 U0
G1 X101.811 Y105.950 E2.65361 U0
G1 X103.227 Y107.522 E2.69635 U0
G1 X104.939 Y108.766 E2.73909 U0
G1 X106.872 Y109.627 E2.78184 U0
G1 X107.343 Y109.727 E2.79156 U0
G1 X107.243 Y109.936 F4800.000
G1 X100.091 Y97.136
G1 X95.364 Y97.136 F940.800 E2.88702 U0
G1 X95.364 Y85.364 E3.12479 U0
G1 X107.136 Y85.364 E3.36255 U0
G1 X107.136 Y90.069 E3.45758 U0
G1 X106.797 Y90.141 E3.46458 U0
G1 X104.817 Y91.022 E3.50835 U0
G1 X103.064 Y92.296 E3.55213 U0
G1 X101.613 Y93.907 E3.5959 U0
G1 X100.530 Y95.784 E3.63968 U0
G1 X100.102 Y97.101 E3.66766 U0
G1 X100.267 Y97.379 F4800.000
G1 X95.121 Y97.379 F752.640 E3.77159 U0
G1 X95.121 Y85.121 E4.01917 U0
G1 X107.379 Y85.121 E4.26675 U0
G1 X107.379 Y90.266 E4.37066 U0
G1 X106.872 Y90.373 E4.38112 U0
G1 X104.939 Y91.234 E4.42386 U0
G1 X103.227 Y92.478 E4.4666 U0
G1 X101.811 Y94.050 E4.50934 U0
G1 X100.753 Y95.883 E4.55209 U0
G1 X100.278 Y97.344 E4.58311 U0
G1 X100.071 Y97.236 F4800.000
G1 X112.864 Y90.069
G1 X112.864 Y85.364 F940.800 E4.67814 U0
G1 X124.636 Y85.364 E4.91591 U0
G1 X124.636 Y97.136 E5.15367 U0
G1 X119.909 Y97.136 E5.24914 U0
G1 X119.470 Y95.784 E5.27785 U0
G1 X118.387 Y93.907 E5.32163 U0
G1 X116.936 Y92.296 E5.3654 U0
G1 X115.183 Y91.022 E5.40917 U0
G1 X113.203 Y90.141 E5.45295 U0
G1 X112.900 Y90.076 E5.45921 U0
G1 X112.621 Y90.266 F4800.000
G1 X112.621 Y85.121 F752.640 E5.56312 U0
G1 X124.879 Y85.121 E5.8107 U0
G1 X124.879 Y97.379 E6.05828 U0
G1 X119.733 Y97.379 E6.16221 U0
G1 X119.247 Y95.883 E6.19398 U0
G1 X118.189 Y94.050 E6.23672 U0
G1 X116.773 Y92.478 E6.27946 U0
G1 X115.061 Y91.234 E6.32221 U0
G1 X113.128 Y90.373 E6.36495 U0
G1 X112.657 Y90.273 E6.37467 U0
G1 X112.757 Y90.064 F4800.000
G1 X99.963 Y103.040
G1 X100.128 Y103.551 F1176.000 E6.38554 U0
G1 X99.618 Y103.040 E6.40015 U0
G1 X99.274 Y103.040 E6.40712 U0
G1 X100.294 Y104.061 E6.43635 U0
G1 X100.629 Y104.740 E6.45167 U0
G1 X98.929 Y103.040 E6.50033 U0
G1 X98.585 Y103.040 E6.5073 U0
G1 X101.099 Y105.555 E6.5793 U0
G1 X102.128 Y106.928 F4800.000
G1 X98.241 Y103.040 F1176.000 E6.69061 U0
G1 X97.896 Y103.040 E6.69758 U0
G1 X106.960 Y112.104 E6.95711 U0
G1 X106.960 Y112.448 E6.96408 U0
G1 X97.552 Y103.040 E7.23347 U0
G1 X97.208 Y103.040 E7.24044 U0
G1 X106.960 Y112.792 E7.51969 U0
G1 X106.960 Y113.137 E7.52666 U0
G1 X96.863 Y103.040 E7.81577 U0
G1 X96.519 Y103.040 E7.82274 U0
G1 X106.960 Y113.481 E8.12172 U0
G1 X106.960 Y113.826 E8.12869 U0
G1 X96.174 Y103.040 E8.43752 U0
G1 X95.830 Y103.040 E8.44449 U0
G1 X106.960 Y114.170 E8.76319 U0
G1 X106.905 Y114.460 E8.76915 U0
G1 X95.540 Y103.095 E9.09458 U0
G1 X95.540 Y103.439 E9.10155 U0
G1 X106.561 Y114.460 E9.41711 U0
G1 X106.216 Y114.460 E9.42408 U0
G1 X95.540 Y103.784 E9.72978 U0
G1 X95.540 Y104.128 E9.73675 U0
G1 X105.872 Y114.460 E10.0326 U0
G1 X105.527 Y114.460 E10.0396 U0
G1 X95.540 Y104.473 E10.3255 U0
G1 X95.540 Y104.817 E10.3325 U0
G1 X105.183 Y114.460 E10.6086 U0
G1 X104.839 Y114.460 E10.6156 U0
G1 X95.540 Y105.161 E10.8819 U0
G1 X95.540 Y105.506 E10.8888 U0
G1 X104.494 Y114.460 E11.1452 U0
G1 X104.150 Y114.460 E11.1522 U0
G1 X95.540 Y105.850 E11.3987 U0
G1 X95.540 Y106.194 E11.4057 U0
G1 X103.806 Y114.460 E11.6424 U0
G1 X103.461 Y114.460 E11.6493 U0
G1 X95.540 Y106.539 E11.8762 U0
G1 X95.540 Y106.883 E11.8831 U0
G1 X103.117 Y114.460 E12.1001 U0
G1 X102.772 Y114.460 E12.107 U0
G1 X95.540 Y107.228 E12.3141 U0
G1 X95.540 Y107.572 E12.3211 U0
G1 X102.428 Y114.460 E12.5183 U0
G1 X102.084 Y114.460 E12.5253 U0
G1 X95.540 Y107.916 E12.7127 U0
G1 X95.540 Y108.261 E12.7197 U0
G1 X101.739 Y114.460 E12.8972 U0
G1 X101.395 Y114.460 E12.9041 U0
G1 X95.540 Y108.605 E13.0718 U0
G1 X95.540 Y108.949 E13.0787 U0
G1 X101.051 Y114.460 E13.2365 U0
G1 X100.706 Y114.460 E13.2435 U0
G1 X95.540 Y109.294 E13.3914 U0
G1 X95.540 Y109.638 E13.3984 U0
G1 X100.362 Y114.460 E13.5365 U0
G1 X100.017 Y114.460 E13.5434 U0
G1 X95.540 Y109.983 E13.6716 U0
G1 X95.540 Y110.327 E13.6786 U0
G1 X99.673 Y114.460 E13.7969 U0
G1 X99.329 Y114.460 E13.8039 U0
G1 X95.540 Y110.671 E13.9124 U0
G1 X95.540 Y111.016 E13.9194 U0
G1 X98.984 Y114.460 E14.018 U0
G1 X98.640 Y114.460 E14.025 U0
G1 X95.540 Y111.360 E14.1137 U0
G1 X95.540 Y111.704 E14.1207 U0
G1 X98.296 Y114.460 E14.1996 U0
G1 X97.951 Y114.460 E14.2065 U0
G1 X95.540 Y112.049 E14.2756 U0
G1 X95.540 Y112.393 E14.2826 U0
G1 X97.607 Y114.460 E14.3417 U0
G1 X97.262 Y114.460 E14.3487 U0
G1 X95.540 Y112.738 E14.398 U0
G1 X95.540 Y113.082 E14.405 U0
G1 X96.918 Y114.460 E14.4444 U0
G1 X96.574 Y114.460 E14.4514 U0
G1 X95.540 Y113.426 E14.481 U0
G1 X95.540 Y113.771 E14.488 U0
G1 X96.229 Y114.460 E14.5077 U0
G1 X95.885 Y114.460 E14.5147 U0
G1 X95.540 Y114.115 E14.5245 U0
G1 X95.541 Y114.460 E14.5315 U0
G1 X103.276 Y108.075 F4800.000
G1 X106.960 Y111.759 F1176.000 E14.637 U0
G1 X106.960 Y111.415 E14.644 U0
G1 X104.535 Y108.990 E14.7134 U0
G1 X105.254 Y109.365 E14.7298 U0
G1 X106.960 Y111.071 E14.7787 U0
G1 X106.960 Y110.726 E14.7856 U0
G1 X105.875 Y109.641 E14.8167 U0
G1 X106.495 Y109.917 E14.8305 U0
G1 X106.960 Y110.382 E14.8438 U0
G1 X95.541 Y96.960 F4800.000
G1 X95.540 Y96.613 F1176.000 E14.8508 U0
G1 X95.887 Y96.960 E14.8608 U0
G1 X96.233 Y96.960 E14.8678 U0
G1 X95.540 Y96.267 E14.8877 U0
G1 X95.540 Y95.921 E14.8948 U0
G1 X96.579 Y96.960 E14.9246 U0
G1 X96.925 Y96.960 E14.9317 U0
G1 X95.540 Y95.575 E14.9715 U0
G1 X95.540 Y95.229 E14.9785 U0
G1 X97.271 Y96.960 E15.0283 U0
G1 X97.617 Y96.960 E15.0354 U0
G1 X95.540 Y94.883 E15.0951 U0
G1 X95.540 Y94.537 E15.1022 U0
G1 X97.963 Y96.960 E15.1718 U0
G1 X98.309 Y96.960 E15.1789 U0
G1 X95.540 Y94.191 E15.2586 U0
G1 X95.540 Y93.845 E15.2656 U0
G1 X98.655 Y96.960 E15.3552 U0
G1 X99.001 Y96.960 E15.3622 U0
G1 X95.540 Y93.499 E15.4618 U0
G1 X95.540 Y93.153 E15.4689 U0
G1 X99.347 Y96.960 E15.5784 U0
G1 X99.693 Y96.960 E15.5854 U0
G1 X95.540 Y92.807 E15.7049 U0
G1 X95.540 Y92.461 E15.7119 U0
G1 X99.981 Y96.902 E15.8397 U0
G1 X100.066 Y96.641 E15.8453 U0
G1 X95.540 Y92.115 E15.9755 U0
G1 X95.540 Y91.769 E15.9826 U0
G1 X100.151 Y96.380 E16.1152 U0
G1 X100.236 Y96.118 E16.1208 U0
G1 X95.540 Y91.423 E16.2559 U0
G1 X95.540 Y91.077 E16.263 U0
G1 X100.321 Y95.857 E16.4005 U0
G1 X100.424 Y95.615 E16.4059 U0
G1 X95.540 Y90.731 E16.5464 U0
G1 X95.540 Y90.385 E16.5534 U0
G1 X100.551 Y95.395 E16.6976 U0
G1 X100.677 Y95.176 E16.7028 U0
G1 X95.540 Y90.039 E16.8506 U0
G1 X95.540 Y89.693 E16.8576 U0
G1 X100.804 Y94.956 E17.009 U0
G1 X100.931 Y94.737 E17.0142 U0
G1 X95.540 Y89.347 E17.1693 U0
G1 X95.540 Y89.001 E17.1763 U0
G1 X101.057 Y94.518 E17.3351 U0
G1 X101.184 Y94.298 E17.3402 U0
G1 X95.540 Y88.655 E17.5026 U0
G1 X95.540 Y88.309 E17.5097 U0
G1 X101.311 Y94.079 E17.6757 U0
G1 X101.437 Y93.860 E17.6808 U0
G1 X95.540 Y87.963 E17.8505 U0
G1 X95.540 Y87.617 E17.8576 U0
G1 X101.592 Y93.668 E18.0317 U0
G1 X101.756 Y93.486 E18.0367 U0
G1 X95.540 Y87.271 E18.2155 U0
G1 X95.540 Y86.924 E18.2225 U0
G1 X101.920 Y93.304 E18.4061 U0
G1 X102.084 Y93.122 E18.4111 U0
G1 X95.540 Y86.578 E18.5993 U0
G1 X95.540 Y86.232 E18.6064 U0
G1 X102.247 Y92.940 E18.7993 U0
G1 X102.411 Y92.757 E18.8043 U0
G1 X95.540 Y85.886 E19.002 U0
G1 X95.540 Y85.540 E19.0091 U0
G1 X102.575 Y92.575 E19.2115 U0
G1 X102.739 Y92.393 E19.2165 U0
G1 X95.886 Y85.540 E19.4136 U0
G1 X96.232 Y85.540 E19.4207 U0
G1 X102.903 Y92.211 E19.6126 U0
G1 X103.094 Y92.056 E19.6176 U0
G1 X96.578 Y85.540 E19.8051 U0
G1 X96.925 Y85.540 E19.8121 U0
G1 X103.295 Y91.911 E19.9954 U0
G1 X103.495 Y91.765 E20.0005 U0
G1 X97.271 Y85.540 E20.1796 U0
G1 X97.617 Y85.540 E20.1866 U0
G1 X103.696 Y91.619 E20.3615 U0
G1 X103.896 Y91.474 E20.3666 U0
G1 X97.963 Y85.540 E20.5373 U0
G1 X98.309 Y85.540 E20.5443 U0
G1 X104.096 Y91.328 E20.7109 U0
G1 X104.297 Y91.183 E20.7159 U0
G1 X98.655 Y85.540 E20.8782 U0
G1 X99.001 Y85.540 E20.8853 U0
G1 X104.497 Y91.037 E21.0434 U0
G1 X104.698 Y90.891 E21.0485 U0
G1 X99.347 Y85.540 E21.2024 U0
G1 X99.693 Y85.540 E21.2095 U0
G1 X104.931 Y90.779 E21.3602 U0
G1 X105.171 Y90.672 E21.3655 U0
G1 X100.039 Y85.540 E21.5132 U0
G1 X100.385 Y85.540 E21.5202 U0
G1 X105.410 Y90.566 E21.6648 U0
G1 X105.650 Y90.459 E21.6702 U0
G1 X100.731 Y85.540 E21.8117 U0
G1 X101.077 Y85.540 E21.8187 U0
G1 X105.889 Y90.352 E21.9572 U0
G1 X106.128 Y90.246 E21.9625 U0
G1 X101.423 Y85.540 E22.0979 U0
G1 X101.769 Y85.540 E22.1049 U0
G1 X106.368 Y90.139 E22.2373 U0
G1 X106.607 Y90.033 E22.2426 U0
G1 X102.115 Y85.540 E22.3718 U0
G1 X102.461 Y85.540 E22.3789 U0
G1 X106.867 Y89.946 E22.5056 U0
G1 X106.960 Y89.693 E22.5111 U0
G1 X102.807 Y85.540 E22.6306 U0
G1 X103.153 Y85.540 E22.6377 U0
G1 X106.960 Y89.347 E22.7472 U0
G1 X106.960 Y89.001 E22.7542 U0
G1 X103.499 Y85.540 E22.8538 U0
G1 X103.845 Y85.540 E22.8608 U0
G1 X106.960 Y88.655 E22.9504 U0
G1 X106.960 Y88.309 E22.9575 U0
G1 X104.191 Y85.540 E23.0371 U0
G1 X104.537 Y85.540 E23.0442 U0
G1 X106.960 Y87.963 E23.1139 U0
G1 X106.960 Y87.617 E23.1209 U0
G1 X104.883 Y85.540 E23.1807 U0
G1 X105.229 Y85.540 E23.1877 U0
G1 X106.960 Y87.271 E23.2375 U0
G1 X106.960 Y86.925 E23.2445 U0
G1 X105.575 Y85.540 E23.2844 U0
G1 X105.921 Y85.540 E23.2914 U0
G1 X106.960 Y86.579 E23.3213 U0
G1 X106.960 Y86.233 E23.3283 U0
G1 X106.267 Y85.540 E23.3482 U0
G1 X106.613 Y85.540 E23.3553 U0
G1 X106.960 Y85.887 E23.3652 U0
G1 X106.959 Y85.540 E23.3723 U0
G1 X113.040 Y87.896 F4800.000
G1 X122.104 Y96.960 F1176.000 E23.6318 U0
G1 X122.448 Y96.960 E23.6388 U0
G1 X113.040 Y87.552 E23.9082 U0
G1 X113.040 Y87.208 E23.9151 U0
G1 X122.792 Y96.960 E24.1944 U0
G1 X123.137 Y96.960 E24.2014 U0
G1 X113.040 Y86.863 E24.4905 U0
G1 X113.040 Y86.519 E24.4974 U0
G1 X123.481 Y96.960 E24.7964 U0
G1 X123.826 Y96.960 E24.8034 U0
G1 X113.040 Y86.174 E25.1122 U0
G1 X113.040 Y85.830 E25.1192 U0
G1 X124.170 Y96.960 E25.4379 U0
G1 X124.460 Y96.905 E25.4439 U0
G1 X113.095 Y85.540 E25.7693 U0
G1 X113.439 Y85.540 E25.7762 U0
G1 X124.460 Y96.561 E26.0918 U0
G1 X124.460 Y96.216 E26.0988 U0
G1 X113.784 Y85.540 E26.4045 U0
G1 X114.128 Y85.540 E26.4114 U0
G1 X124.460 Y95.872 E26.7073 U0
G1 X124.460 Y95.527 E26.7143 U0
G1 X114.473 Y85.540 E27.0002 U0
G1 X114.817 Y85.540 E27.0072 U0
G1 X124.460 Y95.183 E27.2833 U0
G1 X124.460 Y94.839 E27.2903 U0
G1 X115.161 Y85.540 E27.5565 U0
G1 X115.506 Y85.540 E27.5635 U0
G1 X124.460 Y94.494 E27.8199 U0
G1 X124.460 Y94.150 E27.8269 U0
G1 X115.850 Y85.540 E28.0734 U0
G1 X116.194 Y85.540 E28.0804 U0
G1 X124.460 Y93.806 E28.3171 U0
G1 X124.460 Y93.461 E28.324 U0
G1 X116.539 Y85.540 E28.5508 U0
G1 X116.883 Y85.540 E28.5578 U0
G1 X124.460 Y93.117 E28.7748 U0
G1 X124.460 Y92.772 E28.7817 U0
G1 X117.228 Y85.540 E28.9888 U0
G1 X117.572 Y85.540 E28.9958 U0
G1 X124.460 Y92.428 E29.193 U0
G1 X124.460 Y92.084 E29.2 U0
G1 X117.916 Y85.540 E29.3874 U0
G1 X118.261 Y85.540 E29.3943 U0
G1 X124.460 Y91.739 E29.5718 U0
G1 X124.460 Y91.395 E29.5788 U0
G1 X118.605 Y85.540 E29.7464 U0
G1 X118.949 Y85.540 E29.7534 U0
G1 X124.460 Y91.051 E29.9112 U0
G1 X124.460 Y90.706 E29.9182 U0
G1 X119.294 Y85.540 E30.0661 U0
G1 X119.638 Y85.540 E30.0731 U0
G1 X124.460 Y90.362 E30.2111 U0
G1 X124.460 Y90.017 E30.2181 U0
G1 X119.983 Y85.540 E30.3463 U0
G1 X120.327 Y85.540 E30.3533 U0
G1 X124.460 Y89.673 E30.4716 U0
G1 X124.460 Y89.329 E30.4786 U0
G1 X120.671 Y85.540 E30.5871 U0
